X: 561
T: Polska efter Lars Åhs
S: efter Lars Åhs
O: Dalarna, Älvdalen
R: Polska
N: Säckpipepolska
Z: Håkan Lidén, 2008-09-28
M: 9/8
L: 1/4
K: Ador
E ^G/ A B/ c A/ | B/^G/B/ A3/2- A B/ | (4c//B//c//d// e3/2 c e/ | d3/2 B3 :: c d/ e3/2 e3/2 | 
c e/ d/B/d/ c A/ | c d/ e3/2 e3/2 | c e/ d/B/d/ c A/ | A ^G/ E E/ G A/ | B/^G/B/ A3 :|
(:musicend:)

(:music:)
